X:21
T:Ett år och en timme
C:Bridget Marsden
C:Sandra Marteleur
C:Erik Ronström
R:Schottis
Z:Erik Ronström 2007-09-16
M:C|
L:1/8
K:Am
e3d cBce|dedc BcBG|AGAB cdeg|^fgfd e4|
e3d cBce|dedc BcBG|A2ae cAAc|1 BcA2 z4:|2 BABc d2cd|
|:efg2 f2ed|cde2 d4|c2ga fged|cdd2- d2cd|
efga fged|cde2 d2cB|A2ae cAAc|1 BABc d2cd:|2 BcA2 z4|]
(:musicend:)

(:music:)
